assets/icons/television-filled.svg

<?xml version="1.0" encoding="UTF-8" standalone="no"?>
<svg
   viewBox="0 0 24 24"
   height="24"
   width="24"
   version="1.1"
   id="svg8"
   sodipodi:docname="television-filled.svg"
   inkscape:version="1.2 (1:1.2.1+202207142221+cd75a1ee6d)"
   xmlns:inkscape="http://www.inkscape.org/namespaces/inkscape"
   xmlns:sodipodi="http://sodipodi.sourceforge.net/DTD/sodipodi-0.dtd"
   xmlns="http://www.w3.org/2000/svg"
   xmlns:svg="http://www.w3.org/2000/svg"
   xmlns:rdf="http://www.w3.org/1999/02/22-rdf-syntax-ns#"
   xmlns:cc="http://creativecommons.org/ns#"
   xmlns:dc="http://purl.org/dc/elements/1.1/">
  <metadata
     id="metadata14">
    <rdf:RDF>
      <cc:Work
         rdf:about="">
        <dc:format>image/svg+xml</dc:format>
        <dc:type
           rdf:resource="http://purl.org/dc/dcmitype/StillImage" />
      </cc:Work>
    </rdf:RDF>
  </metadata>
  <defs
     id="defs12" />
  <sodipodi:namedview
     pagecolor="#ffffff"
     bordercolor="#666666"
     borderopacity="1"
     objecttolerance="10"
     gridtolerance="10"
     guidetolerance="10"
     inkscape:pageopacity="0"
     inkscape:pageshadow="2"
     inkscape:window-width="1920"
     inkscape:window-height="1043"
     id="namedview10"
     showgrid="true"
     inkscape:zoom="32"
     inkscape:cx="12.6875"
     inkscape:cy="10.53125"
     inkscape:window-x="0"
     inkscape:window-y="0"
     inkscape:window-maximized="1"
     inkscape:current-layer="svg8"
     inkscape:document-rotation="0"
     inkscape:pagecheckerboard="0"
     inkscape:showpageshadow="2"
     inkscape:deskcolor="#d1d1d1">
    <inkscape:grid
       type="xygrid"
       id="grid831" />
  </sodipodi:namedview>
  <path
     id="rect30"
     style="color:#000000;fill:#808080;fill-rule:evenodd;stroke-linecap:square;stroke-linejoin:round"
     d="M 9 3.2929688 L 8.2929688 4 L 8.6464844 4.3535156 L 11.292969 7 L 5.5 7 C 4.8453696 7 4.2447357 7.194378 3.7851562 7.5390625 C 3.3255771 7.883747 3 8.4056003 3 9 L 3 18 C 3 18.594399 3.325577 19.116253 3.7851562 19.460938 C 4.2447357 19.805621 4.8453696 20 5.5 20 L 18.5 20 C 19.15463 20 19.755264 19.805621 20.214844 19.460938 C 20.674423 19.116253 21 18.594399 21 18 L 21 9 C 21 8.4056003 20.674423 7.883747 20.214844 7.5390625 C 19.755264 7.194378 19.15463 7 18.5 7 L 12.707031 7 L 15.353516 4.3535156 L 15.707031 4 L 15 3.2929688 L 14.646484 3.6464844 L 12 6.2929688 L 9.3535156 3.6464844 L 9 3.2929688 z M 5.5 8 L 16.5 8 C 17.330998 8 18 8.4460012 18 9 L 18 18 C 18 18.553998 17.330998 19 16.5 19 L 5.5 19 C 4.6690016 19 4 18.553998 4 18 L 4 9 C 4 8.4460012 4.6690016 8 5.5 8 z M 6.2851562 9 C 5.572872 9 5 9.3650875 5 9.8183594 L 5 17.181641 C 5 17.634912 5.572872 18 6.2851562 18 L 15.714844 18 C 16.427128 18 17 17.634912 17 17.181641 L 17 9.8183594 C 17 9.3650875 16.427128 9 15.714844 9 L 6.2851562 9 z M 19.5 10 C 19.776142 10 20 10.223858 20 10.5 C 20 10.776142 19.776142 11 19.5 11 C 19.223858 11 19 10.776142 19 10.5 C 19 10.223858 19.223858 10 19.5 10 z M 19.5 12 C 19.776142 12 20 12.223858 20 12.5 C 20 12.776142 19.776142 13 19.5 13 C 19.223858 13 19 12.776142 19 12.5 C 19 12.223858 19.223858 12 19.5 12 z " />
</svg>

<svg height="24" width="24" xmlns="http://www.w3.org/2000/svg"><path style="color:#000;fill:gray;stroke-linecap:square;stroke-linejoin:round" d="M9 3.293 8.293 4l.353.354L11.293 7H5.5c-.655 0-1.255.194-1.715.54C3.325 7.883 3 8.405 3 9v9c0 .594.326 1.116.785 1.46.46.346 1.06.54 1.715.54h13c.655 0 1.255-.194 1.715-.54.46-.344.785-.866.785-1.46V9c0-.594-.326-1.116-.785-1.46-.46-.346-1.06-.54-1.715-.54h-5.793l2.647-2.646.353-.354L15 3.293l-.354.353L12 6.293 9.354 3.646 9 3.293zM5.5 8h11c.831 0 1.5.446 1.5 1v9c0 .554-.669 1-1.5 1h-11c-.831 0-1.5-.446-1.5-1V9c0-.554.669-1 1.5-1zm.785 1C5.573 9 5 9.365 5 9.818v7.364c0 .453.573.818 1.285.818h9.43c.712 0 1.285-.365 1.285-.818V9.818C17 9.365 16.427 9 15.715 9h-9.43zM19.5 10a.5.5 0 1 1 0 1 .5.5 0 0 1 0-1zm0 2a.5.5 0 1 1 0 1 .5.5 0 0 1 0-1z"/></svg>
